symbols/web/bento/materialsymbolsoutlined/bento_wght200gradN25_48px.svg

<svg xmlns="http://www.w3.org/2000/svg" height="48" width="48"><path d="M8.55 36.2q-1.15 0-1.95-.8t-.8-1.95V14.5q0-1.1.8-1.925t1.95-.825H39.5q1.1 0 1.925.825t.825 1.925v18.95q0 1.15-.825 1.95t-1.925.8Zm17.85-13h14.35v-8.7q0-.45-.4-.85-.4-.4-.85-.4H26.4ZM8.55 34.7H24.9V13.25H8.55q-.5 0-.875.4t-.375.85v18.95q0 .5.375.875t.875.375ZM16 25.8q-.75 0-1.275-.525Q14.2 24.75 14.2 24q0-.8.525-1.325.525-.525 1.275-.525.8 0 1.325.525.525.525.525 1.325 0 .75-.525 1.275Q16.8 25.8 16 25.8Zm10.4 8.9h13.1q.45 0 .85-.375.4-.375.4-.875v-8.7H26.4Z"/></svg>

<svg xmlns="http://www.w3.org/2000/svg" height="48" width="48"><path d="M8.55 36.2Q7.4 36.2 6.6 35.4Q5.8 34.6 5.8 33.45V14.5Q5.8 13.4 6.6 12.575Q7.4 11.75 8.55 11.75H39.5Q40.6 11.75 41.425 12.575Q42.25 13.4 42.25 14.5V33.45Q42.25 34.6 41.425 35.4Q40.6 36.2 39.5 36.2ZM26.4 23.2H40.75V14.5Q40.75 14.05 40.35 13.65Q39.95 13.25 39.5 13.25H26.4ZM8.55 34.7H24.9V13.25H8.55Q8.05 13.25 7.675 13.65Q7.3 14.05 7.3 14.5V33.45Q7.3 33.95 7.675 34.325Q8.05 34.7 8.55 34.7ZM16 25.8Q15.25 25.8 14.725 25.275Q14.2 24.75 14.2 24Q14.2 23.2 14.725 22.675Q15.25 22.15 16 22.15Q16.8 22.15 17.325 22.675Q17.85 23.2 17.85 24Q17.85 24.75 17.325 25.275Q16.8 25.8 16 25.8ZM26.4 34.7H39.5Q39.95 34.7 40.35 34.325Q40.75 33.95 40.75 33.45V24.75H26.4Z"/></svg>
